static/icons/mysql.svg

<svg height="252" preserveAspectRatio="xMidYMid" viewBox="0 0 256 252" width="256" xmlns="http://www.w3.org/2000/svg"><g fill="#00546b"><path d="m235.648276 194.211632c-13.918425-.347073-24.705404 1.04564-33.752672 4.872332-2.609705 1.043442-6.785677 1.044534-7.133837 4.349494 1.392731 1.392731 1.566267 3.654258 2.784329 5.567597 2.089096 3.478496 5.741151 8.177288 9.047221 10.613452 3.653144 2.783241 7.307374 5.566482 11.134099 8.002646 6.785676 4.175972 14.441209 6.611017 21.052261 10.78697 3.8289 2.433944 7.654446 5.567588 11.482257 8.177288 1.914473 1.390515 3.131447 3.653134 5.567615 4.523035v-.521714c-1.218107-1.566253-1.566267-3.82778-2.783241-5.567588-1.738716-1.739803-3.479606-3.306061-5.219409-5.045864-5.045874-6.78458-11.308766-12.700296-18.094352-17.571532-5.566482-3.827798-17.746192-9.047198-20.007783-15.484697 0 0-.174624-.173541-.34816-.347081 3.827767-.348183 8.350812-1.73979 12.005087-2.784347 5.915775-1.566249 11.308766-1.218075 17.397986-2.783241 2.783242-.696352 5.567615-1.566253 8.350856-2.43616v-1.565147c-3.130313-3.132543-5.392945-7.307391-8.699016-10.265297-8.872552-7.656665-18.616138-15.136509-28.706753-21.399384-5.394079-3.479602-12.353292-5.742243-18.094352-8.699025-2.086876-1.04564-5.567615-1.566249-6.784589-3.30607-3.132521-3.827776-4.872324-8.872539-7.133841-13.39672-5.043653-9.569974-9.917119-20.181273-14.266572-30.271914-3.130314-6.785672-5.044759-13.5713758-8.872548-19.8341417-17.919696-29.5766179-37.405767-47.4964131-67.330554-65.0690659-6.4374848-3.6531522-14.0919301-5.2194033-22.2692452-7.132745-4.3483979-.1746441-8.6990159-.5217158-13.0485556-.6963599-2.7832411-1.2180946-5.5675877-4.5230433-8.0037607-6.0893084-9.914871-6.263948-35.49132349-19.83311518-42.7986917-1.91334173-4.69769062 11.30874923 6.95921274 22.44277463 10.9604927 28.18497883 2.9589885 4.0013366 6.785672 8.52437 8.8736578 13.0485651 1.2180888 2.9556763 1.5651568 6.0893021 2.7832456 9.2207303 2.7843421 7.6533624 5.3929413 16.1798978 9.0471895 23.3138294 1.9144451 3.6531517 4.0013253 7.4809362 6.4374893 10.78586 1.391616 1.9133395 3.8266789 2.7843466 4.3494989 5.9157703-2.4350539 3.4795927-2.6097002 8.6990157-4.0024309 13.0485557-6.2628429 19.6595-3.8266834 44.016808 5.0458733 58.456898 2.7832411 4.348407 9.3953359 13.919531 18.2679606 10.265292 7.8291099-3.131438 6.0893021-13.048556 8.3508288-21.747572.522829-2.089087.1746418-3.479593 1.2180842-4.871227.0009062.173541 0 .348178 0 .348178 2.4361595 4.871227 4.8712269 9.568949 7.1327445 14.440095 5.3940469 8.524369 14.7883543 17.398018 22.6174139 23.313847 4.177078 3.130305 7.482033 8.524374 12.70142 10.43881v-.522829h-.348178c-1.044544-1.566253-2.6097-2.261526-4.001325-3.479592-3.131429-3.131429-6.612136-6.959227-9.04719-10.438811-7.3062853-9.743595-13.7448892-20.529446-19.4859814-31.664585-2.7832411-5.392941-5.2194005-11.308762-7.4809272-16.701685-1.0445434-2.089082-1.0445434-5.219405-2.7843466-6.262838-2.6097003 3.826674-6.4363837 7.132744-8.3508287 11.830444-3.3038545 7.480927-3.6531427 16.70168-4.8712269 26.27053-.6952689.174651-.3481872 0-.6963699.348191-5.5664866-1.39273-7.4809317-7.132744-9.5689538-12.005086-5.219405-12.352126-6.089302-32.186368-1.5651568-46.451816 1.2180843-3.654248 6.4374893-15.1365232 4.3495035-18.6161341-1.0434424-3.3060746-4.5241498-5.219405-6.4374893-7.8291052-2.2615267-3.3060701-4.6976861-7.4809317-6.2628429-11.1351391-4.1759717-9.7424765-6.2639485-20.5294466-10.7869746-30.2730422-2.0879858-4.5241489-5.7411285-9.2207317-8.6990159-13.3956091-3.3049555-4.6976779-6.9592128-8.0037489-9.56894927-13.5713557-.86880057-1.9133417-2.08798584-5.0447591-.69636078-7.132754.34818266-1.3916119 1.04343788-1.9133367 2.43615945-2.26152163 2.2615266-1.91444548 8.6990159.52171573 10.9604927 1.56516133 6.4374893 2.6085888 11.8304442 5.0458724 17.2244911 8.699015 2.4350584 1.739801 5.0447586 5.0458719 8.1761869 5.9157726h3.6542437c5.5675876 1.2169814 11.8304441.3481659 17.0498446 1.9133413 9.2218359 2.9567828 17.5715365 7.3073891 25.0536417 12.005086 22.7920604 14.4400978 41.5805834 34.9706635 54.2820934 59.5014942 2.087986 4.0002246 2.956782 7.6555646 4.871227 11.8304446 3.654248 8.525475 8.177288 17.224486 11.83044 25.575328 3.653142 8.176183 7.132744 16.528144 12.352131 23.31383 2.610806 3.652046 13.048542 5.566482 17.746165 7.480927 3.479606 1.565166 8.873685 2.957896 12.005086 4.871231 5.914689 3.652037 11.830464 7.829124 17.398033 11.83044 2.784329 2.086889 11.482257 6.437498 12.005086 9.916004z"/><path d="m58.1864892 43.0222644c-2.9578829 0-5.0447587.3492882-7.1327445.8710162 0-.0009062 0 .1746419 0 .3481827h.3481872c1.3927261 2.7832401 3.8266835 4.6976852 5.5664821 7.1327345 1.3927306 2.7832411 2.6097003 5.5675967 4.0024309 8.3519434.1735317-.1746464.3470726-.3481827.3470726-.3481827 2.437274-1.7409087 3.6542482-4.5241498 3.6542482-8.6990159-1.044548-1.2180843-1.2180888-2.436164-2.0879859-3.6542482-1.0434424-1.7409124-3.3060746-2.6096994-4.6976906-4.00243z"/></g></svg>

<?xml version="1.0" encoding="UTF-8" standalone="no" ?>
<svg width="256px" height="252px" viewBox="0 0 256 252" version="1.1" xmlns="http://www.w3.org/2000/svg" xmlns:xlink="http://www.w3.org/1999/xlink" preserveAspectRatio="xMidYMid">
    <path d="M235.648276,194.211632 C221.729851,193.864559 210.942872,195.257272 201.895604,199.083964 C199.285899,200.127406 195.109927,200.128498 194.761767,203.433458 C196.154498,204.826189 196.328034,207.087716 197.546096,209.001055 C199.635192,212.479551 203.287247,217.178343 206.593317,219.614507 C210.246461,222.397748 213.900691,225.180989 217.727416,227.617153 C224.513092,231.793125 232.168625,234.22817 238.779677,238.404123 C242.608577,240.838067 246.434123,243.971711 250.261934,246.581411 C252.176407,247.971926 253.393381,250.234545 255.829549,251.104446 L255.829549,250.582732 C254.611442,249.016479 254.263282,246.754952 253.046308,245.015144 C251.307592,243.275341 249.566702,241.709083 247.826899,239.96928 C242.781025,233.1847 236.518133,227.268984 229.732547,222.397748 C224.166065,218.56995 211.986355,213.35055 209.724764,206.913051 C209.724764,206.913051 209.55014,206.73951 209.376604,206.56597 C213.204371,206.217787 217.727416,204.82618 221.381691,203.781623 C227.297466,202.215374 232.690457,202.563548 238.779677,200.998382 C241.562919,200.30203 244.347292,199.432129 247.130533,198.562222 L247.130533,196.997075 C244.00022,193.864532 241.737588,189.689684 238.431517,186.731778 C229.558965,179.075113 219.815379,171.595269 209.724764,165.332394 C204.330685,161.852792 197.371472,159.590151 191.630412,156.633369 C189.543536,155.587729 186.062797,155.06712 184.845823,153.327299 C181.713302,149.499523 179.973499,144.45476 177.711982,139.930579 C172.668329,130.360605 167.794863,119.749306 163.44541,109.658665 C160.315096,102.872993 158.400651,96.0872892 154.572862,89.8245233 C136.653166,60.2479054 117.167095,42.3281102 87.242308,24.7554574 C80.8048232,21.1023052 73.1503779,19.5360541 64.9730628,17.6227124 C60.6246649,17.4480683 56.2740469,17.1009966 51.9245072,16.9263525 C49.1412661,15.7082579 46.3569195,12.4033092 43.9207465,10.8370441 C34.0058755,4.5730961 8.42942301,-8.99607108 1.1220548,8.92370237 C-3.57563582,20.2324516 8.08126754,31.366477 12.0825475,37.1086812 C15.041536,41.1100178 18.8682195,45.6330512 20.9562053,50.1572463 C22.1742941,53.1129226 22.5213621,56.2465484 23.7394509,59.3779766 C26.523793,67.031339 29.1323922,75.5578744 32.7866404,82.691806 C34.7010855,86.3449577 36.7879657,90.1727422 39.2241297,93.477666 C40.6157457,95.3910055 43.0508086,96.2620126 43.5736286,99.3934363 C41.1385747,102.873029 40.9639284,108.092452 39.5711977,112.441992 C33.3083548,132.101492 35.7445143,156.4588 44.617071,170.89889 C47.4003121,175.247297 54.0124069,184.818421 62.8850316,181.164182 C70.7141415,178.032744 68.9743337,168.115626 71.2358604,159.41661 C71.7586894,157.327523 71.4105022,155.937017 72.4539446,154.545383 C72.4548508,154.718924 72.4539446,154.893561 72.4539446,154.893561 C74.8901041,159.764788 77.3251715,164.46251 79.5866891,169.333656 C84.980736,177.858025 94.3750434,186.731674 102.204103,192.647503 C106.381181,195.777808 109.686136,201.171877 114.905523,203.086313 L114.905523,202.563484 L114.557345,202.563484 C113.512801,200.997231 111.947645,200.301958 110.55602,199.083892 C107.424591,195.952463 103.943884,192.124665 101.50883,188.645081 C94.2025447,178.901486 87.7639408,168.115635 82.0228486,156.980496 C79.2396075,151.587555 76.8034481,145.671734 74.5419214,140.278811 C73.497378,138.189729 73.497378,135.059406 71.7575748,134.015973 C69.1478745,137.842647 65.3211911,141.148717 63.4067461,145.846417 C60.1028916,153.327344 59.7536034,162.548097 58.5355192,172.116947 C57.8402503,172.291598 58.187332,172.116947 57.8391493,172.465138 C52.2726627,171.072408 50.3582176,165.332394 48.2701955,160.460052 C43.0507905,148.107926 42.1808935,128.273684 46.7050387,114.008236 C47.923123,110.353988 53.142528,98.8717128 51.0545422,95.3921019 C50.0110998,92.0860273 46.5303924,90.1726969 44.6170529,87.5629967 C42.3555262,84.2569266 39.9193668,80.082065 38.35421,76.4278576 C34.1782383,66.6853811 32.0902615,55.898411 27.5672354,46.1548154 C25.4792496,41.6306665 21.8261069,36.9340837 18.8682195,32.7592063 C15.563264,28.0615284 11.9090067,24.7554574 9.29927023,19.1878506 C8.43046966,17.2745089 7.21128439,14.1430915 8.60290945,12.0550966 C8.95109211,10.6634847 9.64634733,10.1417599 11.0390689,9.79357497 C13.3005955,7.87912949 19.7380848,10.3152907 21.9995616,11.3587363 C28.4370509,13.9673251 33.8300058,16.4046087 39.2240527,20.0577513 C41.6591111,21.7975523 44.2688113,25.1036232 47.4002396,25.9735239 L51.0544833,25.9735239 C56.6220709,27.1905053 62.8849274,26.3216898 68.1043279,27.8868652 C77.3261638,30.843648 85.6758644,35.1942543 93.1579696,39.8919512 C115.95003,54.332049 134.738553,74.8626147 147.440063,99.3934454 C149.528049,103.39367 150.396845,107.04901 152.31129,111.22389 C155.965538,119.749365 160.488578,128.448376 164.14173,136.799218 C167.794872,144.975401 171.274474,153.327362 176.493861,160.113048 C179.104667,163.765094 189.542403,165.67953 194.240026,167.593975 C197.719632,169.159141 203.113711,170.551871 206.245112,172.465206 C212.159801,176.117243 218.075576,180.29433 223.643145,184.295646 C226.427474,186.382535 235.125402,190.733144 235.648231,194.21165 L235.648276,194.211632 L235.648276,194.211632 Z" fill="#00546B"></path>
    <path d="M58.1864892,43.0222644 C55.2286063,43.0222644 53.1417305,43.3715526 51.0537447,43.8932806 C51.0537447,43.8923744 51.0537447,44.0679225 51.0537447,44.2414633 L51.4019319,44.2414633 C52.794658,47.0247034 55.2286154,48.9391485 56.968414,51.3741978 C58.3611446,54.1574389 59.5781143,56.9417945 60.9708449,59.7261412 C61.1443766,59.5514948 61.3179175,59.3779585 61.3179175,59.3779585 C63.7551915,57.6370498 64.9721657,54.8538087 64.9721657,50.6789426 C63.9276177,49.4608583 63.7540769,48.2427786 62.8841798,47.0246944 C61.8407374,45.283782 59.5781052,44.414995 58.1864892,43.0222644 L58.1864892,43.0222644 L58.1864892,43.0222644 Z" fill="#00546B"></path>
</svg>
